svg/cloud-download.svg

<svg width="24" height="24" viewBox="0 0 24 24" fill="none" xmlns="http://www.w3.org/2000/svg">
<path d="M11 4C8.79082 4 7 5.79085 7 8C7 8.03242 7.00047 8.06627 7.00131 8.10224C7.01219 8.56727 6.70099 8.97839 6.25047 9.09416C4.95577 9.42685 4 10.6031 4 12C4 13.6569 5.34317 15 7 15H8C8.55228 15 9 15.4477 9 16C9 16.5523 8.55228 17 8 17H7C4.23861 17 2 14.7614 2 12C2 9.93746 3.2482 8.16845 5.02926 7.40373C5.32856 4.36995 7.88746 2 11 2C13.2236 2 15.1629 3.20934 16.199 5.00324C19.4207 5.10823 22 7.75289 22 11C22 14.3137 19.3138 17 16 17C15.4477 17 15 16.5523 15 16C15 15.4477 15.4477 15 16 15C18.2092 15 20 13.2091 20 11C20 8.79085 18.2092 7 16 7C15.8893 7 15.78 7.00447 15.6718 7.01322C15.2449 7.04776 14.8434 6.8066 14.6734 6.4135C14.0584 4.99174 12.6439 4 11 4ZM12 10C12.5523 10 13 10.4477 13 11L13 18.5858L13.2929 18.2929C13.6834 17.9024 14.3166 17.9024 14.7071 18.2929C15.0976 18.6834 15.0976 19.3166 14.7071 19.7071L12.7071 21.7071C12.5196 21.8946 12.2652 22 12 22C11.7348 22 11.4804 21.8946 11.2929 21.7071L9.29289 19.7071C8.90237 19.3166 8.90237 18.6834 9.29289 18.2929C9.68342 17.9024 10.3166 17.9024 10.7071 18.2929L11 18.5858L11 11C11 10.4477 11.4477 10 12 10Z" fill="#0D0D0D"/>
</svg>

<svg width="24" height="24" fill="none" xmlns="http://www.w3.org/2000/svg"><path d="M11 4a4 4 0 00-3.999 4.102 1 1 0 01-.75.992A3.002 3.002 0 007 15h1a1 1 0 110 2H7a5 5 0 01-1.97-9.596 6 6 0 0111.169-2.4A6 6 0 0116 17a1 1 0 110-2 4 4 0 10-.328-7.987 1 1 0 01-.999-.6A4.001 4.001 0 0011 4zm1 6a1 1 0 011 1v7.586l.293-.293a1 1 0 011.414 1.414l-2 2a1 1 0 01-1.414 0l-2-2a1 1 0 111.414-1.414l.293.293V11a1 1 0 011-1z" fill="#0D0D0D"/></svg>
